!!!OTL: Wiedersehen an der Bahre 'Nun adje, jetzt reis' ich fort,
!!!ARE: Europa, Mitteleuropa, Deutschland (BRD), Wuerttemberg, Schwaebische Alb
!!!YOR: 2, S. 80
!!    1913 gedruckt in Tuebingen
!!!SCT: Q0056H
!!!YEM: Copyright 1995, estate of Helmut Schaffrath.
**kern
*ICvox
*Ivox
*M3/4
*k[f#]
*G:
=1
{8.d
16g
4g
8f#
8e
=2
8.e
16d
4d
8r}
{8d
=3
8.d
16g
4g
8f#
8e
=4
4e
4d
8r}
{8g
=5
8f#
8a
4dd
8cc
8dd
=6
8b
8b
4b
8a}
{8g
=7
8f#
8a
4dd
8.cc
16f#
=8
4f#
4g
4r}
==
!!!AGN: Ballade, Abschied, Enttaeuschung, Tod, Selbstmord
!! Eingeklammerte Note nicht mitgespielt.
!!!ONB: ESAC (Essen Associative Code) Database: BALLADE
!!!AMT: simple triple
!!!AIN: vox
!!!EED: Helmut Schaffrath
!!!EEV: 1.0
*-
